X: 332
T: Bilmezsin Düşündüğüm
C: Râkım Elkutlu
O: Turkey
F: http://compmusic.upf.edu/node/140
N: beyati--sarki--kapali_curcuna--bilmezsin_dusundugum--rakim_elkutlu
N: makam= beyati
N: form= sarki
N: usul= kapali_curcuna = 10/8
M: 10/8
L: 1/16
K: C _2/4B   
Q: 1/4=192
%%MIDI tuningsystem comma53
d6d4d2 {e}dcc6  | c2B4B2 A2A2 {c}BAA6  | \
w:  Bil mez sin  *  *  *  dü  |  şün *  dü *  ğüm   | 
e6e4e2 g2e4d2  | d2c2 B3A G2d8-d2  | 
w:  ağ la dık *  la  |  rım  *  *  *  ne dir    | 
A2B2 c2d2 e2c2 B2A6  | d6d4d2 {e}dcc6  | \
w:  SAZ  |  Bil mez sin  *  *  *  dü  | 
c2B4B2 A2A2 {c}BAA6  | 
w:  şün *  dü *  ğüm   | 
e6e4e2 g2e4d2  | d2c2 B3A G2d8-d2  | \
w:  ağ la dık *  la  |  rım  *  *  *  ne dir    | 
d2e2 c2B2 A2B2 c2d6  | 
w:  SAZ  | 
z4 e2g2 e2e4e4d2  | d4 g2a4ag fedc d2z2  | \
w:  Na sıl  *  bir  dert   |  *  ta şı rım   | 
z4 ^3/4f2g4g2 f2_7/8ed e2f2  | 
w:  i çim de  *  kaç   | 
^3/4f2_7/8e2 g2fe d2d2 =edd6  | d4 e2d2 c2B2 c2d6  | \
w:  se *  *  ne *  *  dir    |  SAZ  | 
z4 d2e2 c2c2 B2B2 {c}BAA2  | 
w:  Na sıl  *  bir  *  dert   | 
z4 g2a4ag fedc d2z2  | z4 B2c4c2 B2B2 {c}BAG2  | \
w:  ta şı rım   |  i çim de  *  kaç   | 
c2B2 d2cB A2A2 {c}BAA6  | 
w:  se *  *  ne *  *  dir    | 
e2^3/4f2 g2a2 b2g2 fee6  | d6e4e4a4e2  | \
w:  SAZ  |  An la maz  çün  | 
e6a4e4e6  | c6_2/4d4d2 c2c2 B2A2  | 
w:  kü  kal bin   |  his si me  *  bî  | 
A6B4c8-c2  | c4 _2/4d2c2 B2A2 B2c6  | \
w:  gâ ne dir    |  SAZ  | 
d6e4e4a4e2  | e6a4e4e6  | d6e4e2 g2e4d2  | 
w:  An la maz  çün  |  kü  kal bin   |  his si me  *  bî  | 
d2c2 B3A G2d8-d2  | d2e2 c2B2 A2B2 c2d6  | \
w:  gâ *  *  *  ne dir    |  SAZ  | 
z4 e2g2 e2e4e4d2  | 
w:  Na sıl  *  bir  dert   | 
d4 g2a4ag fedc d2z2  | z4 ^3/4f2g4g2 f2_7/8ed e2f2  | \
w:  *  ta şı rım   |  i çim de  *  kaç   | 
^3/4f2_7/8e2 g2fe d2d2 =edd6  | 
w:  se *  *  ne *  *  dir    | 
d4 e2d2 c2B2 c2d6  | z4 d2e2 c2c2 B2B2 {c}BAA2  | \
w:  SAZ  |  Na sıl  *  bir  *  dert   | 
z4 g2a4ag fedc d2z2  | 
w:  ta şı rım   | 
z4 B2c4c2 B2B2 {c}BAG2  | c2B2 d2cB A2A2 {c}BAA6  | |


